svg/tools.svg

<svg xmlns="http://www.w3.org/2000/svg" viewBox="0 0 64 64" enable-background="new 0 0 64 64"><style type="text/css">.st0{fill:#343434;}</style><title>tools</title><desc>Created with Sketch.</desc><path class="st0" d="M62.1 53.6l-20.5-20.5 19.9-19.9c2.4-2.4 2.3-6.1 0-8.5l-1.5-1.4c-2.3-2.3-6.1-2.3-8.5 0l-19.8 19.9-2.8-2.8 6.4-6.4c1.2-1.2 1.2-3.1 0-4.2l-8.5-8.5c-1.2-1.2-3.1-1.2-4.2 0l-6.6 6.4c-1.5-.9-3.5-.7-4.8.6l-2.8 2.8c-1.3 1.3-1.5 3.3-.6 4.8l-6.5 6.5c-1.2 1.2-1.2 3.1 0 4.2l8.5 8.5c1.2 1.2 3.1 1.2 4.2 0l6.4-6.4 5.7 5.7-20.5 20.5c-1.2 1.2-1.2 3.1 0 4.2 1.2 1.2 3.1 1.2 4.2 0l20.4-20.4 23.3 23.3c1.6 1.6 4.1 1.6 5.7 0l2.8-2.8c1.7-1.5 1.7-4.1.1-5.6zm-8.4-48.2c1.2-1.2 3.1-1.2 4.2 0l1.4 1.4c1.2 1.2 1.2 3.1 0 4.2l-19.1 19.2-5.7-5.7 19.2-19.1zm-27.7 17.8l15.6 15.6-2.8 2.8c-5.2-5.3-10.8-10.8-15.6-15.6l2.8-2.8zm-17.6 34.6c-.4.4-1 .4-1.4 0-.4-.4-.4-1 0-1.4l20.4-20.4 1.4 1.4-20.4 20.4zm48.1 1.4l-14.8-14.8 2.8-2.8c8.2 8.2 14.9 14.8 14.9 14.8-.1 0-2.9 2.8-2.9 2.8zM41 25.2l15.5-15.5c.4-.4.4-1 0-1.4-.4-.4-1-.4-1.4 0l-15.6 15.5c-.4.4-.4 1 0 1.4.4.4 1.1.4 1.5 0z"/></svg>

<svg xmlns="http://www.w3.org/2000/svg" viewBox="0 0 64 64"><path d="M62.1 53.6L41.6 33.1l19.9-19.9c2.4-2.4 2.3-6.1 0-8.5L60 3.3c-2.3-2.3-6.1-2.3-8.5 0L31.7 23.2l-2.8-2.8 6.4-6.4c1.2-1.2 1.2-3.1 0-4.2l-8.5-8.5c-1.2-1.2-3.1-1.2-4.2 0L16 7.7c-1.5-.9-3.5-.7-4.8.6l-2.8 2.8c-1.3 1.3-1.5 3.3-.6 4.8l-6.5 6.5c-1.2 1.2-1.2 3.1 0 4.2l8.5 8.5c1.2 1.2 3.1 1.2 4.2 0l6.4-6.4 5.7 5.7L5.6 54.9c-1.2 1.2-1.2 3.1 0 4.2 1.2 1.2 3.1 1.2 4.2 0l20.4-20.4L53.5 62c1.6 1.6 4.1 1.6 5.7 0l2.8-2.8c1.7-1.5 1.7-4.1.1-5.6zM53.7 5.4c1.2-1.2 3.1-1.2 4.2 0l1.4 1.4c1.2 1.2 1.2 3.1 0 4.2L40.2 30.2l-5.7-5.7L53.7 5.4zM26 23.2l15.6 15.6-2.8 2.8C33.6 36.3 28 30.8 23.2 26l2.8-2.8zM8.4 57.8c-.4.4-1 .4-1.4 0-.4-.4-.4-1 0-1.4L27.4 36l1.4 1.4L8.4 57.8zm48.1 1.4L41.7 44.4l2.8-2.8c8.2 8.2 14.9 14.8 14.9 14.8-.1 0-2.9 2.8-2.9 2.8zM41 25.2L56.5 9.7c.4-.4.4-1 0-1.4-.4-.4-1-.4-1.4 0L39.5 23.8c-.4.4-.4 1 0 1.4.4.4 1.1.4 1.5 0z" fill="#343434"/></svg>
